X:1
T:Puisque fortune
T:Claude Gervaise
T:Source : Livre I de 25 chansons nouvelles à parties---Paris---N.du Chemin---1549. Editor : André Vierendeels (08/02/18) Notes : Original clefs : C1, C3 (m15+16 in C2), C3, F3 Original note values have been halved Editorial accidentals above the stave Square brackets indicate ligatures Dotted brackets indicate black notes
T:#
T:Puisque fortune
T:©
T:©
T:©
T:©
T:©
T:©
C:Claude Gervaise
Z:©
%%score 1 2 3 4
L:1/8
Q:1/4=120
M:2/2
K:F
V:1 treble nm="Soprano" snm="S"
V:2 treble-8 nm="Alto" snm="A"
V:3 treble-8 nm="Tenor" snm="T"
V:4 bass nm="Bass" snm="B"
V:1
 z4 F4 | G2 G2 A4 | F4 A3 G | AB c3 B A2- | A2 G2 A4 | c4 A2 B2 | AGFE F2 G2 | B2 A2 GF F2- | %8
w: Puis-|que for- tu-|ne mal _|_ _ ap- * prin-|* * se,|a mis sur|moy _ _ _ _ sa|des- ti- * * né-|
w: Ia-|mais ie n'i-|ray à _|_ _ _ l'e- gli-|* * se,|car i'ay es-|té _ _ _ _ des-|che- vil- * * lé-|
 F2 E2 F4 :| A2 BG A2 z2 | A2 BG AAGB | A4 z2 A2 | G2 B2 A4 | z2 c2 f2 f2 | d2 d2 g3 f | %15
w: * * e,|al- lant le trot,|al- lant le trot, tour- nant le|pas, tour-|nant le pas,|cri- ant par|trop et sans _|
w: * * e,|||||||
 ed c3 A d2- | dc c4 B2 | c4 z2 c2- | ccBB A4 | c2 d2 c2 f2- | f2 ed c4 | z4 c2 cc | AABB G2 z A | %23
w: _ _ _ _ _|* * * com-|pas, las,|_ mes- si- re Ie-|han vous ser- rez|_ _ _ trop,|mes- si- re|Iean, vous ser- rez trop, vous|
w: ||||||||
 B2 G2 z ABB | G2 z A AAFF | GG E2 z E F2 | D2 z E FF D2 | z EFF D2 F2 | F2 E2 F4 | z2 A2 AAFF | %30
w: ser- rez, vous ser- rez|trop, mes- si- re Iean, vous|ser- rez trop, vous ser-|rez, vous ser- rez trop,|vous ser- rez trop, vous|ser- rez trop|mes- si- re Iean vous|
w: |||||||
 GG E2 z E F2 | D2 z E FF D2 | z EFF D2 F2 | F2 E2 F4- | F8 |] %35
w: ser- rez trop, vous ser-|rez, vous ser- rez trop,|vous ser- rez trop vour|ser- rez trop.|_|
w: |||||
V:2
 C4 D2 D2 | E4 C4 | z2 D2 E2 F2- | F2 ED C4 | D4 E4 | z2 F4 D2 | F2 C2 z2 C2 | D6 B,2 | C4 A,4 :| %9
w: Puis- que for-|tu- ne|mal ap- prin-||* se,|a mis|sur moy la|des- sti-|né- e,|
w: Ia- mais ie|n'i- ray|à l'e- gli-||* se,|cat i'ay|es- té des-|che vil-|lé- e,|
 F2 DE F4 | F2 DE FFED | F4 F4 | E2 D2 F4- | F8 | z2 F2 B2 B2 | G6 G2 | A2 F2 G4 | E4 F3 F | %18
w: al- lant le trot,|al- lant le trot, al- lant le|trot, tour-|nant le pas,|_|cri- ant par|trop, et|sans _ com-|pas, las, mes-|
w: |||||||||
 EFDE FD C2 | z2 F3 FFF | G2 G2 A2 A2 | F2 G2 GGEE | FF D2 z E F2 | D2 z E FF D2 | E2 z2 D2 DD | %25
w: si- re Iean, vous ser- rez trop,|vous ser- rez trop,|vous ser- rez- trop,|mes- Iean, vous ser- rez trop,|vous ser- rez, vous ser-|rez, vous ser- rez _|trop, si- re Ie-|
w: |||||||
 B,B, C2 C2 A,2 | z B,CC A,2 z B, | CCA,F, F,2 B,2 | C4 C2 CC | A,4 D2 DD | B,B, C2 C2 A,2 | %31
w: an, vous ser- rez trop,|vous ser- rez trop, mes-|si- re Iean, vous ser- rez|trop, vous ser- rez|trop, mes- si- re|Iean, vous ser- rez trop,|
w: ||||||
 z B,CC A,2 z B, | CCA,F, F,2 B,2 | C4 C2 CC | A,8 |] %35
w: vous ser- rez trop, vous|ser- rez trop, vous ser- rez|trop, vous ser- rez|trop|
w: ||||
V:3
 F4 B3 A | G4 F2 A2- | AG AB c2 d2 | cBcd e2 f2- | f2 ed c2 c2- | c2 A2 d4 | cBAG A2 G2 | %7
w: Puis- que for-|tu- ne mal|_ _ _ _ _ ap-|prin- * * * * *|* * * se, a|_ mis sur|moy _ _ _ _ sa|
w: Ia- mais ie|n'i- ray à-|* * * * * l'e-|gli- * * * * *|* * * * se,|_ car iay|es- * * * * té|
 F2 F2 BAGF | G4 F4 :| z4 c2 dA | c2 z2 c2 cB | cBAG A2 c2 | c2 B2 c4 | z2 A2 d2 d2 | GABc d2 g2- | %15
w: des- ti- né- * * *|* e,|al- lant le|trot, al- lant le|trot _ _ _ _ tour-|nant le pas,|cri- ant par|trop _ _ _ _ et|
w: des- che- vil- * * *|lé- e,|||||||
 gfed e2 d2 | fedc d4 | c4 z4 | z4 z2 c2- | ccBB A4 | z2 c2 ccAA | BB G2 z G A2 | F2 z B c2 F2 | %23
w: _ _ _ _ _ sans|com- * * * *|pas,|las,|_ mes- si- re Iean,|mes- si- re Iean, vous|ser- rez trop, vous ser-|rez, vous ser- rez,|
w: ||||||||
 z Bcc F2 z2 | c2 cc AABB | G2 z G A2 F2 | z GAA F2 z G | AAFF BAGF | G2 G2 F4 | c2 cc AABB | %30
w: vous ser- rez trop,|mes- si- re Iean, vous ser- ez|trop, vous ser- rez,|vous ser- rez trop mes-|si- re Iean, vous ser _ _ _|_ re trop,|mes- si- re Iean vous ser- rez|
w: |||||||
 G2 z G AA F2 | z G A2 F2 z G | AAFF BAGF | G4 F4- | F8 |] %35
w: trop, vous ser- rez trop|vous ser- rez vous|ser- rez trop, vous ser- * * *|rez trop.|_|
w: |||||
V:4
 z8 | C,4 F,3 E, | D,4 C,2 F,E, | F,G, A,4 F,2 | B,4 A,4- | A,4 z4 | F,4 D,2 E,2 | %7
w: |Puis- que for-|tu- ne mal _|_ _ _ ap-|prin- se,|_|a mis sur|
w: |Ia- mais ie|n'i- ray à _|_ _ _ l'e-|gli- se,|_|car i'ay es-|
 D,3 C, B,,2 D,2 | C,4 F,4 :| F,2 G,C, F,2 z2 | F,2 G,C, F,F,C,G, |"^-natural" F,4 z2 F,2 | %12
w: moy la des- ti-|né- e,|al- lant le trot,|al- lant le trot, tour- nant le|pas, tour-|
w: té des- che- vil-|lé e,||||
 C,2 G,2 F,4- | F,4 z2 F,2 | B,2 B,2 G,2 G,2 | C6 B,2 | A,4 G,4 | C,2 CC B,B, A,2 | z4 F,3 F, | %19
w: nant le pas,|_ cri-|ant par trop et|sans _|_ com-|pas, las, mes- si- re Iean,|las, mes-|
w: |||||||
 E,F,D,E, F,2 D,2 | C,4 F,2 F,F, | D,D,E,E, C,2 z2 | F,2 G,2 C,2 z F, | G,G, C,2 z F,G,G, | %24
w: si- re Iean, mes- si- re|Iean, mes- si- re|Iean, vous ser- rez trop,|vous, ser- rez, vous|ser- rez trop, vous ser- rez|
w: |||||
 C,2 z F, F,F,D,D, | E,E, C,2 z C, D,2 | B,,2 z C, D,D, B,,2 | z C,D,D, B,,2 D,2 | C,2 C,2 F,4 | %29
w: trop, mes- si- re Iean, vous|ser- rez trop, vous ser-|rez, vous ser- rez trop,|mes- si- re Iean, vous|ser- rez trop,|
w: |||||
 z2 F,2 F,F,D,D, | E,E, C,2 z C, D,2 | B,,2 z C, D,D, B,,2 | z C,D,D, B,,2 D,2 | C,2 C,2 F,4- | %34
w: me- si- re Iean, vous|ser- rez trop, vous ser-|rez, vous ser- rez trop,|vous ser- rez trop, vous|ser- rez- trop|
w: |||||
 F,8 |] %35
w: _|
w: |

